X: 1
T: Jazz to Classical Transition
M: 4/4
L: 1/4
Q: 1/4=120
K: C
V:1
%%MIDI gchord b2b2
%%MIDI program 0 % Acoustic Grand Piano
%%MIDI chordprog 26 % Jazz Guitar
%%MIDI bassprog 33 % Acoustic Bass
| "C9" E3 C | "F7" F3 F | "G7" G2 ^F2 | "C7" E3 D | % measure 1-4
%%MIDI program 0 % Acoustic Grand Piano
%%MIDI chordprog 25 % Acoustic Guitar
%%MIDI bassprog 33 % Acoustic Bass
| "Dm7" F2 F G | "G7" A3 A | "C7" G2 E C | "C7" E4 | % measure 5-8
%%MIDI program 0 % Acoustic Grand Piano
%%MIDI chordprog 25 % Acoustic Guitar
%%MIDI bassprog 33 % Acoustic Bass
| "Am7" A2 C A | "Dm7" D3 D | "G7" G2 ^F G | "C7" E3 E | % measure 9-12
%%MIDI program 0 % Acoustic Grand Piano
%%MIDI chordprog 48 % String Ensemble 1
%%MIDI bassprog 33 % Acoustic Bass
| "C" E2 D E | "G7" G3 G | "Dm" D2 E D | "C" C4 | % measure 13-16